assets/img/logos/androidapps.svg

<?xml version="1.0" encoding="UTF-8" standalone="no"?>
<svg
   width="100%"
   height="100%"
   viewBox="0 0 168 62"
   version="1.1"
   style="fill-rule:evenodd;clip-rule:evenodd;stroke-linejoin:round;stroke-miterlimit:2;"
   id="svg20"
   sodipodi:docname="androidapps.svg"
   inkscape:version="1.2.2 (732a01da63, 2022-12-09)"
   xmlns:inkscape="http://www.inkscape.org/namespaces/inkscape"
   xmlns:sodipodi="http://sodipodi.sourceforge.net/DTD/sodipodi-0.dtd"
   xmlns="http://www.w3.org/2000/svg"
   xmlns:svg="http://www.w3.org/2000/svg">
  <defs
     id="defs24" />
  <sodipodi:namedview
     id="namedview22"
     pagecolor="#000000"
     bordercolor="#111111"
     borderopacity="1"
     inkscape:showpageshadow="0"
     inkscape:pageopacity="0"
     inkscape:pagecheckerboard="1"
     inkscape:deskcolor="#d1d1d1"
     showgrid="false"
     inkscape:zoom="7.2797619"
     inkscape:cx="83.450531"
     inkscape:cy="31.044971"
     inkscape:window-width="1920"
     inkscape:window-height="1009"
     inkscape:window-x="-8"
     inkscape:window-y="-8"
     inkscape:window-maximized="1"
     inkscape:current-layer="svg20" />
  <g
     id="g2650"
     style="fill:#a4c639;fill-opacity:1"
     transform="translate(0,2)">
    <path
       d="m 126.235,11.068 c -0.584,0 -1.065,-0.481 -1.065,-1.065 0,-0.583 0.481,-1.064 1.065,-1.064 0.584,0 1.064,0.481 1.064,1.064 0,0.584 -0.48,1.065 -1.064,1.065 m -11.72,0 c -0.584,0 -1.065,-0.481 -1.065,-1.065 0,-0.583 0.481,-1.064 1.065,-1.064 0.584,0 1.064,0.481 1.064,1.064 0,0.584 -0.48,1.065 -1.064,1.065 m 12.097,-6.387 2.129,-3.67 c 0.038,-0.066 0.058,-0.142 0.058,-0.218 0,-0.241 -0.199,-0.44 -0.44,-0.44 -0.159,0 -0.306,0.087 -0.383,0.226 l -2.151,3.714 C 124.116,3.512 122.259,3.111 120.38,3.118 118.5,3.113 116.64,3.51 114.925,4.282 l -2.151,-3.715 c -0.078,-0.136 -0.224,-0.221 -0.381,-0.221 -0.242,0 -0.44,0.199 -0.44,0.44 0,0.075 0.019,0.148 0.056,0.214 l 2.118,3.67 c -3.717,2.027 -6.165,5.804 -6.498,10.024 h 25.469 C 132.775,10.476 130.329,6.7 126.612,4.681"
       style="fill:#a4c639;fill-opacity:1;fill-rule:nonzero;stroke:#ffffff;stroke-width:0.4;stroke-dasharray:none;stroke-opacity:1"
       id="path2" />
    <path
       d="m 38.983,4.72 c 1.38,0 2.527,0.712 3.072,1.48 V 4.909 h 2.104 v 9.584 h -1.514 c -0.334,0 -0.601,-0.267 -0.601,-0.601 v -0.69 c -0.534,0.779 -1.681,1.492 -3.061,1.492 -2.627,0 -4.62,-2.249 -4.62,-4.987 0,-2.739 1.993,-4.987 4.62,-4.987 m 0.379,1.914 c -1.704,0 -2.861,1.347 -2.861,3.073 0,1.725 1.146,3.072 2.861,3.072 1.703,0 2.86,-1.347 2.86,-3.072 0,-1.726 -1.146,-3.073 -2.86,-3.073"
       style="fill:#a4c639;fill-opacity:1;fill-rule:nonzero;stroke:#ffffff;stroke-width:0.4;stroke-dasharray:none;stroke-opacity:1"
       id="path4" />
    <path
       d="m 46.553,4.909 h 2.115 v 1.302 c 0.578,-0.957 1.669,-1.491 2.916,-1.491 2.226,0 3.662,1.569 3.662,4.007 v 5.766 h -1.514 c -0.334,0 -0.601,-0.267 -0.601,-0.601 v -4.82 c 0,-1.514 -0.768,-2.438 -1.992,-2.438 -1.403,0 -2.471,1.091 -2.471,3.139 v 4.72 h -1.514 c -0.334,0 -0.601,-0.267 -0.601,-0.601 z"
       style="fill:#a4c639;fill-opacity:1;fill-rule:nonzero;stroke:#ffffff;stroke-width:0.4;stroke-dasharray:none;stroke-opacity:1"
       id="path6" />
    <path
       d="m 61.536,4.72 c 1.38,0 2.527,0.712 3.072,1.48 V 0.122 h 2.104 v 14.382 h -1.514 c -0.334,0 -0.601,-0.267 -0.601,-0.601 v -0.69 c -0.534,0.768 -1.692,1.481 -3.072,1.481 -2.628,0 -4.62,-2.249 -4.62,-4.987 0.011,-2.739 2.004,-4.987 4.631,-4.987 m 0.378,1.914 c -1.703,0 -2.861,1.347 -2.861,3.073 0,1.725 1.147,3.072 2.861,3.072 1.703,0 2.861,-1.347 2.861,-3.072 0,-1.726 -1.158,-3.073 -2.861,-3.073"
       style="fill:#a4c639;fill-opacity:1;fill-rule:nonzero;stroke:#ffffff;stroke-width:0.4;stroke-dasharray:none;stroke-opacity:1"
       id="path8" />
    <path
       d="m 69.083,4.909 h 2.126 v 1.703 c 0.367,-1.091 1.436,-1.803 2.527,-1.803 0.267,0 0.534,0.022 0.824,0.078 v 2.17 C 74.192,6.946 73.892,6.879 73.502,6.879 c -1.213,0 -2.304,1.013 -2.304,2.939 v 4.675 h -1.514 c -0.334,0 -0.601,-0.267 -0.601,-0.601 z"
       style="fill:#a4c639;fill-opacity:1;fill-rule:nonzero;stroke:#ffffff;stroke-width:0.4;stroke-dasharray:none;stroke-opacity:1"
       id="path10" />
    <path
       d="m 80.259,14.694 c -2.839,0 -5.02,-2.204 -5.02,-4.987 0,-2.783 2.181,-4.987 5.02,-4.987 2.838,0 5.02,2.204 5.02,4.987 0,2.783 -2.182,4.987 -5.02,4.987 m 0,-1.96 c 1.692,0 2.872,-1.324 2.872,-3.027 0,-1.703 -1.191,-3.028 -2.872,-3.028 -1.703,0 -2.894,1.325 -2.894,3.028 0,1.703 1.191,3.027 2.894,3.027"
       style="fill:#a4c639;fill-opacity:1;fill-rule:nonzero;stroke:#ffffff;stroke-width:0.4;stroke-dasharray:none;stroke-opacity:1"
       id="path12" />
    <path
       d="M 88.04,2.816 C 87.272,2.816 86.626,2.182 86.626,1.403 86.626,0.635 87.283,0 88.04,0 c 0.79,0 1.402,0.635 1.402,1.403 0,0.79 -0.612,1.413 -1.402,1.413 m -1.046,2.093 h 2.103 v 9.584 h -1.502 c -0.334,0 -0.601,-0.267 -0.601,-0.601 z"
       style="fill:#a4c639;fill-opacity:1;fill-rule:nonzero;stroke:#ffffff;stroke-width:0.4;stroke-dasharray:none;stroke-opacity:1"
       id="path14" />
    <path
       d="m 95.453,4.72 c 1.381,0 2.527,0.712 3.073,1.48 V 0.122 h 2.104 v 14.382 h -1.514 c -0.334,0 -0.601,-0.267 -0.601,-0.601 v -0.69 c -0.535,0.768 -1.692,1.481 -3.073,1.481 -2.627,0 -4.619,-2.249 -4.619,-4.987 0.011,-2.739 2.003,-4.987 4.63,-4.987 m 0.39,1.914 c -1.703,0 -2.861,1.347 -2.861,3.073 0,1.725 1.147,3.072 2.861,3.072 1.703,0 2.861,-1.347 2.861,-3.072 0,-1.726 -1.158,-3.073 -2.861,-3.073"
       style="fill:#a4c639;fill-opacity:1;fill-rule:nonzero;stroke:#ffffff;stroke-width:0.4;stroke-dasharray:none;stroke-opacity:1"
       id="path16" />
  </g>
  <path
     d="m 35.279591,50.090284 c -3.783188,0 -6.972347,-1.381165 -9.569476,-4.142514 -2.559127,-2.76037 -3.839191,-6.102592 -3.839191,-10.026666 0,-3.923095 1.280064,-7.265317 3.839191,-10.026666 2.597129,-2.76135 5.786288,-4.142514 9.569476,-4.142514 1.892094,0 3.63518,0.418267 5.23026,1.253823 1.594079,0.799312 2.81814,1.779841 3.671182,2.943545 v -3.651759 h 6.120305 v 27.247142 h -6.120305 v -3.65078 c -0.853042,1.162725 -2.077103,2.161865 -3.671182,2.996441 -1.59508,0.800292 -3.338166,1.199948 -5.23026,1.199948 z M 30.43935,42.134385 c 1.558077,1.670131 3.542176,2.505687 5.952296,2.505687 2.41112,0 4.395219,-0.835556 5.953296,-2.505687 1.558077,-1.672091 2.337116,-3.742858 2.337116,-6.213281 0,-2.470423 -0.779039,-4.541191 -2.337116,-6.212302 -1.558077,-1.671111 -3.542176,-2.506666 -5.953296,-2.506666 -2.41012,0 -4.394219,0.835555 -5.952296,2.506666 -1.558077,1.671111 -2.337116,3.741879 -2.337116,6.212302 0,2.470423 0.779039,4.54119 2.337116,6.213281 z m 33.228652,18.800488 h -6.120304 v -38.63734 h 6.120304 v 3.651759 c 0.853043,-1.163704 2.077104,-2.144233 3.671183,-2.943545 1.632081,-0.835556 3.394169,-1.253823 5.285263,-1.253823 3.784188,0 6.955346,1.381164 9.514473,4.142514 2.596129,2.761349 3.894193,6.103571 3.894193,10.026666 0,3.924074 -1.298064,7.266296 -3.894193,10.026666 -2.559127,2.761349 -5.730285,4.142514 -9.514473,4.142514 -1.891094,0 -3.653182,-0.399656 -5.285263,-1.199948 -1.594079,-0.834576 -2.81814,-1.833716 -3.671183,-2.996441 z m 7.84439,-16.294801 c 2.41112,0 4.395219,-0.835556 5.952296,-2.505687 1.558078,-1.672091 2.337117,-3.742858 2.337117,-6.213281 0,-2.470423 -0.779039,-4.541191 -2.337117,-6.212302 -1.557077,-1.671111 -3.541176,-2.506666 -5.952296,-2.506666 -2.448121,0 -4.451221,0.835555 -6.008298,2.506666 -1.558078,1.671111 -2.337117,3.741879 -2.337117,6.212302 0,2.470423 0.779039,4.54119 2.337117,6.213281 1.557077,1.670131 3.560177,2.505687 6.008298,2.505687 z m 25.828285,16.294801 h -6.119305 v -38.63734 h 6.119305 v 3.651759 c 0.853042,-1.163704 2.078103,-2.144233 3.672183,-2.943545 1.63208,-0.835556 3.39417,-1.253823 5.28526,-1.253823 3.78419,0 6.95535,1.381164 9.51348,4.142514 2.59612,2.761349 3.89519,6.103571 3.89519,10.026666 0,3.924074 -1.29907,7.266296 -3.89519,10.026666 -2.55813,2.761349 -5.72929,4.142514 -9.51348,4.142514 -1.89109,0 -3.65318,-0.399656 -5.28526,-1.199948 -1.59408,-0.834576 -2.819141,-1.833716 -3.672183,-2.996441 z m 7.845393,-16.294801 c 2.41112,0 4.39522,-0.835556 5.95229,-2.505687 1.55808,-1.672091 2.33712,-3.742858 2.33712,-6.213281 0,-2.470423 -0.77904,-4.541191 -2.33712,-6.212302 -1.55707,-1.671111 -3.54117,-2.506666 -5.95229,-2.506666 -2.44812,0 -4.45122,0.835555 -6.009302,2.506666 -1.558077,1.671111 -2.336116,3.741879 -2.336116,6.212302 0,2.470423 0.778039,4.54119 2.336116,6.213281 1.558082,1.670131 3.561182,2.505687 6.009302,2.505687 z m 29.50046,5.450212 c -3.30116,0 -6.0833,-0.800292 -8.34541,-2.397937 -2.22611,-1.598624 -3.41217,-3.741878 -3.56118,-6.430741 h 6.34232 c 0.44602,2.688863 2.35611,4.032804 5.73128,4.032804 1.37207,0 2.46712,-0.23705 3.28217,-0.708214 0.81604,-0.509365 1.22406,-1.235211 1.22406,-2.180476 0,-0.944286 -0.31502,-1.688743 -0.94505,-2.233373 -0.63103,-0.545608 -1.68908,-1.000119 -3.17116,-1.362553 l -4.56323,-1.199947 c -4.74723,-1.234232 -7.12035,-3.97697 -7.12035,-8.228214 0,-2.288227 0.94505,-4.123902 2.83714,-5.504087 1.8911,-1.416428 4.39422,-2.125622 7.51038,-2.125622 3.00514,0 5.47127,0.745437 7.39936,2.235331 1.9291,1.488915 3.00415,3.468584 3.22716,5.939007 h -6.1193 c -0.59403,-2.251983 -2.11511,-3.378465 -4.56223,-3.378465 -1.22506,0 -2.20711,0.254683 -2.94914,0.763069 -0.74204,0.472143 -1.11306,1.144113 -1.11306,2.016892 0,1.561401 1.24306,2.65164 3.72819,3.268756 l 4.67323,1.199947 c 4.93324,1.235212 7.39937,3.97697 7.39937,8.228214 0,2.579153 -1.02005,4.577434 -3.06016,5.994841 -2.0031,1.380185 -4.61723,2.070768 -7.84439,2.070768 z"
     style="fill:#a4c639;fill-opacity:1;fill-rule:nonzero;stroke:#ffffff;stroke-width:0.593848;stroke-dasharray:none;stroke-opacity:1"
     id="path18" />
</svg>

<?xml version="1.0" encoding="utf-8"?>
<svg width="100%" height="100%" viewBox="0 0 168 62" version="1.1" style="fill-rule:evenodd;clip-rule:evenodd;stroke-linejoin:round;stroke-miterlimit:2;" xmlns="http://www.w3.org/2000/svg">
  <path d="M 126.235 11.068 C 125.651 11.068 125.17 10.587 125.17 10.003 C 125.17 9.42 125.651 8.939 126.235 8.939 C 126.819 8.939 127.299 9.42 127.299 10.003 C 127.299 10.587 126.819 11.068 126.235 11.068 M 114.515 11.068 C 113.931 11.068 113.45 10.587 113.45 10.003 C 113.45 9.42 113.931 8.939 114.515 8.939 C 115.099 8.939 115.579 9.42 115.579 10.003 C 115.579 10.587 115.099 11.068 114.515 11.068 M 126.612 4.681 L 128.741 1.011 C 128.779 0.945 128.799 0.869 128.799 0.793 C 128.799 0.552 128.6 0.353 128.359 0.353 C 128.2 0.353 128.053 0.44 127.976 0.579 L 125.825 4.293 C 124.116 3.512 122.259 3.111 120.38 3.118 C 118.5 3.113 116.64 3.51 114.925 4.282 L 112.774 0.567 C 112.696 0.431 112.55 0.346 112.393 0.346 C 112.151 0.346 111.953 0.545 111.953 0.786 C 111.953 0.861 111.972 0.934 112.009 1 L 114.127 4.67 C 110.41 6.697 107.962 10.474 107.629 14.694 L 133.098 14.694 C 132.775 10.476 130.329 6.7 126.612 4.681" style="fill:white;fill-rule:nonzero;"/>
  <path d="M 38.983 4.72 C 40.363 4.72 41.51 5.432 42.055 6.2 L 42.055 4.909 L 44.159 4.909 L 44.159 14.493 L 42.645 14.493 C 42.311 14.493 42.044 14.226 42.044 13.892 L 42.044 13.202 C 41.51 13.981 40.363 14.694 38.983 14.694 C 36.356 14.694 34.363 12.445 34.363 9.707 C 34.363 6.968 36.356 4.72 38.983 4.72 M 39.362 6.634 C 37.658 6.634 36.501 7.981 36.501 9.707 C 36.501 11.432 37.647 12.779 39.362 12.779 C 41.065 12.779 42.222 11.432 42.222 9.707 C 42.222 7.981 41.076 6.634 39.362 6.634" style="fill:white;fill-rule:nonzero;"/>
  <path d="M 46.553 4.909 L 48.668 4.909 L 48.668 6.211 C 49.246 5.254 50.337 4.72 51.584 4.72 C 53.81 4.72 55.246 6.289 55.246 8.727 L 55.246 14.493 L 53.732 14.493 C 53.398 14.493 53.131 14.226 53.131 13.892 L 53.131 9.072 C 53.131 7.558 52.363 6.634 51.139 6.634 C 49.736 6.634 48.668 7.725 48.668 9.773 L 48.668 14.493 L 47.154 14.493 C 46.82 14.493 46.553 14.226 46.553 13.892 L 46.553 4.909 Z" style="fill:white;fill-rule:nonzero;"/>
  <path d="M 61.536 4.72 C 62.916 4.72 64.063 5.432 64.608 6.2 L 64.608 0.122 L 66.712 0.122 L 66.712 14.504 L 65.198 14.504 C 64.864 14.504 64.597 14.237 64.597 13.903 L 64.597 13.213 C 64.063 13.981 62.905 14.694 61.525 14.694 C 58.897 14.694 56.905 12.445 56.905 9.707 C 56.916 6.968 58.909 4.72 61.536 4.72 M 61.914 6.634 C 60.211 6.634 59.053 7.981 59.053 9.707 C 59.053 11.432 60.2 12.779 61.914 12.779 C 63.617 12.779 64.775 11.432 64.775 9.707 C 64.775 7.981 63.617 6.634 61.914 6.634" style="fill:white;fill-rule:nonzero;"/>
  <path d="M 69.083 4.909 L 71.209 4.909 L 71.209 6.612 C 71.576 5.521 72.645 4.809 73.736 4.809 C 74.003 4.809 74.27 4.831 74.56 4.887 L 74.56 7.057 C 74.192 6.946 73.892 6.879 73.502 6.879 C 72.289 6.879 71.198 7.892 71.198 9.818 L 71.198 14.493 L 69.684 14.493 C 69.35 14.493 69.083 14.226 69.083 13.892 L 69.083 4.909 Z" style="fill:white;fill-rule:nonzero;"/>
  <path d="M 80.259 14.694 C 77.42 14.694 75.239 12.49 75.239 9.707 C 75.239 6.924 77.42 4.72 80.259 4.72 C 83.097 4.72 85.279 6.924 85.279 9.707 C 85.279 12.49 83.097 14.694 80.259 14.694 M 80.259 12.734 C 81.951 12.734 83.131 11.41 83.131 9.707 C 83.131 8.004 81.94 6.679 80.259 6.679 C 78.556 6.679 77.365 8.004 77.365 9.707 C 77.365 11.41 78.556 12.734 80.259 12.734" style="fill:white;fill-rule:nonzero;"/>
  <path d="M 88.04 2.816 C 87.272 2.816 86.626 2.182 86.626 1.403 C 86.626 0.635 87.283 0 88.04 0 C 88.83 0 89.442 0.635 89.442 1.403 C 89.442 2.193 88.83 2.816 88.04 2.816 M 86.994 4.909 L 89.097 4.909 L 89.097 14.493 L 87.595 14.493 C 87.261 14.493 86.994 14.226 86.994 13.892 L 86.994 4.909 Z" style="fill:white;fill-rule:nonzero;"/>
  <path d="M 95.453 4.72 C 96.834 4.72 97.98 5.432 98.526 6.2 L 98.526 0.122 L 100.63 0.122 L 100.63 14.504 L 99.116 14.504 C 98.782 14.504 98.515 14.237 98.515 13.903 L 98.515 13.213 C 97.98 13.981 96.823 14.694 95.442 14.694 C 92.815 14.694 90.823 12.445 90.823 9.707 C 90.834 6.968 92.826 4.72 95.453 4.72 M 95.843 6.634 C 94.14 6.634 92.982 7.981 92.982 9.707 C 92.982 11.432 94.129 12.779 95.843 12.779 C 97.546 12.779 98.704 11.432 98.704 9.707 C 98.704 7.981 97.546 6.634 95.843 6.634" style="fill:white;fill-rule:nonzero;"/>
  <path d="M 35.282 50.685 C 31.499 50.685 28.31 49.275 25.713 46.456 C 23.154 43.638 21.874 40.226 21.874 36.22 C 21.874 32.215 23.154 28.803 25.713 25.984 C 28.31 23.165 31.499 21.755 35.282 21.755 C 37.174 21.755 38.917 22.182 40.512 23.035 C 42.106 23.851 43.33 24.852 44.183 26.04 L 44.183 22.312 L 50.303 22.312 L 50.303 50.128 L 44.183 50.128 L 44.183 46.401 C 43.33 47.588 42.106 48.608 40.512 49.46 C 38.917 50.277 37.174 50.685 35.282 50.685 Z M 30.442 42.563 C 32 44.268 33.984 45.121 36.394 45.121 C 38.805 45.121 40.789 44.268 42.347 42.563 C 43.905 40.856 44.684 38.742 44.684 36.22 C 44.684 33.698 43.905 31.584 42.347 29.878 C 40.789 28.172 38.805 27.319 36.394 27.319 C 33.984 27.319 32 28.172 30.442 29.878 C 28.884 31.584 28.105 33.698 28.105 36.22 C 28.105 38.742 28.884 40.856 30.442 42.563 Z M 63.669 61.756 L 57.549 61.756 L 57.549 22.312 L 63.669 22.312 L 63.669 26.04 C 64.522 24.852 65.746 23.851 67.34 23.035 C 68.972 22.182 70.734 21.755 72.625 21.755 C 76.409 21.755 79.58 23.165 82.139 25.984 C 84.735 28.803 86.033 32.215 86.033 36.22 C 86.033 40.226 84.735 43.638 82.139 46.456 C 79.58 49.275 76.409 50.685 72.625 50.685 C 70.734 50.685 68.972 50.277 67.34 49.46 C 65.746 48.608 64.522 47.588 63.669 46.401 L 63.669 61.756 Z M 71.513 45.121 C 73.924 45.121 75.908 44.268 77.465 42.563 C 79.023 40.856 79.802 38.742 79.802 36.22 C 79.802 33.698 79.023 31.584 77.465 29.878 C 75.908 28.172 73.924 27.319 71.513 27.319 C 69.065 27.319 67.062 28.172 65.505 29.878 C 63.947 31.584 63.168 33.698 63.168 36.22 C 63.168 38.742 63.947 40.856 65.505 42.563 C 67.062 44.268 69.065 45.121 71.513 45.121 Z M 97.34 61.756 L 91.221 61.756 L 91.221 22.312 L 97.34 22.312 L 97.34 26.04 C 98.193 24.852 99.418 23.851 101.012 23.035 C 102.644 22.182 104.406 21.755 106.297 21.755 C 110.081 21.755 113.252 23.165 115.81 25.984 C 118.406 28.803 119.705 32.215 119.705 36.22 C 119.705 40.226 118.406 43.638 115.81 46.456 C 113.252 49.275 110.081 50.685 106.297 50.685 C 104.406 50.685 102.644 50.277 101.012 49.46 C 99.418 48.608 98.193 47.588 97.34 46.401 L 97.34 61.756 Z M 105.185 45.121 C 107.596 45.121 109.58 44.268 111.137 42.563 C 112.695 40.856 113.474 38.742 113.474 36.22 C 113.474 33.698 112.695 31.584 111.137 29.878 C 109.58 28.172 107.596 27.319 105.185 27.319 C 102.737 27.319 100.734 28.172 99.176 29.878 C 97.618 31.584 96.84 33.698 96.84 36.22 C 96.84 38.742 97.618 40.856 99.176 42.563 C 100.734 44.268 102.737 45.121 105.185 45.121 Z M 134.684 50.685 C 131.383 50.685 128.601 49.868 126.339 48.237 C 124.113 46.605 122.927 44.417 122.778 41.672 L 129.12 41.672 C 129.566 44.417 131.476 45.789 134.851 45.789 C 136.223 45.789 137.318 45.547 138.133 45.066 C 138.949 44.546 139.357 43.805 139.357 42.84 C 139.357 41.876 139.042 41.116 138.412 40.56 C 137.781 40.003 136.723 39.539 135.241 39.169 L 130.678 37.944 C 125.931 36.684 123.558 33.884 123.558 29.544 C 123.558 27.208 124.503 25.334 126.395 23.925 C 128.286 22.479 130.789 21.755 133.905 21.755 C 136.91 21.755 139.376 22.516 141.304 24.037 C 143.233 25.557 144.308 27.578 144.531 30.1 L 138.412 30.1 C 137.818 27.801 136.297 26.651 133.85 26.651 C 132.625 26.651 131.643 26.911 130.901 27.43 C 130.159 27.912 129.788 28.598 129.788 29.489 C 129.788 31.083 131.031 32.196 133.516 32.826 L 138.189 34.051 C 143.122 35.312 145.588 38.111 145.588 42.451 C 145.588 45.084 144.568 47.124 142.528 48.571 C 140.525 49.98 137.911 50.685 134.684 50.685 Z" style="fill:white;fill-rule:nonzero;"/>
</svg>
